X: 33208
T: Providence, The
R: reel
M: 4/4
K: Dmajor
EDEF DEFA|d2fd gefd|edBd A2FA|~B2AF GFED|
EDCE DEFA|d2fd gefd|edBd A2FA|(3BcB AG FDD2|
fd (3dcd fdgd|fd (3dcd ecAd|fd (3ddd fdgd|ceag fdde|
fgaf gfec|dBAF G2FG|(3ABA GB ABde|(3fga eg fdde|

